small/extra/apps/standard/krdc.svg

<?xml version="1.0" encoding="UTF-8" standalone="no"?>
<!-- Created with Inkscape (http://www.inkscape.org/) -->

<svg
   xmlns:dc="http://purl.org/dc/elements/1.1/"
   xmlns:cc="http://creativecommons.org/ns#"
   xmlns:rdf="http://www.w3.org/1999/02/22-rdf-syntax-ns#"
   xmlns:svg="http://www.w3.org/2000/svg"
   xmlns="http://www.w3.org/2000/svg"
   xmlns:sodipodi="http://sodipodi.sourceforge.net/DTD/sodipodi-0.dtd"
   xmlns:inkscape="http://www.inkscape.org/namespaces/inkscape"
   id="svg2"
   height="100%"
   width="100%"
   version="1.1"
   viewBox="0 0 512 512"
   inkscape:version="0.91+devel r13804 custom"
   sodipodi:docname="krdc.svg">
  <sodipodi:namedview
     pagecolor="#ffffff"
     bordercolor="#666666"
     borderopacity="1"
     objecttolerance="10"
     gridtolerance="10"
     guidetolerance="10"
     inkscape:pageopacity="0"
     inkscape:pageshadow="2"
     inkscape:window-width="1366"
     inkscape:window-height="709"
     id="namedview65"
     showgrid="false"
     inkscape:zoom="0.4609375"
     inkscape:cx="297.76036"
     inkscape:cy="238.66637"
     inkscape:window-x="0"
     inkscape:window-y="0"
     inkscape:window-maximized="0"
     inkscape:current-layer="svg2" />
  <metadata
     id="metadata127">
    <rdf:RDF>
      <cc:Work
         rdf:about="">
        <dc:format>image/svg+xml</dc:format>
        <dc:type
           rdf:resource="http://purl.org/dc/dcmitype/StillImage" />
      </cc:Work>
    </rdf:RDF>
  </metadata>
  <defs
     id="defs4" />
  <path
     inkscape:connector-curvature="0"
     style="fill:#0078ad"
     id="path9"
     d="M 26,0 C 11.603,0 0,11.603 0,26 l 0,460 c 0,14.397 11.603,26 26,26 l 460,0 c 14.397,0 26,-11.603 26,-26 L 512,26 C 512,11.603 500.4,0 486,0 L 26,0" />
  <path
     style="color:#000000;opacity:0.25"
     d="M 395.81055 58.75 L 395.12109 59.4375 L 395.12695 59.443359 L 248.66016 205.91016 L 247.97266 206.59766 L 263.00586 221.63086 L 399.53906 358.2207 L 400.22461 358.90625 L 400.2207 358.91016 L 512 470.68945 L 512 174.91016 L 467.81055 130.7207 L 396.5 59.439453 L 395.81055 58.75 z M 116.18945 153.13086 L 115.50391 153.81641 L 115.5 153.81055 L 44.189453 225.06055 L 43.533203 225.74805 L 191.39648 373.61133 L 191.39453 373.61328 L 43.53125 225.75 L 44.1875 226.4375 L 44.189453 226.43945 L 118.2207 304.4082 L 118.2207 304.41016 L 41.28125 381.41016 L 41.279297 381.41016 L 40.591797 382.09766 L 54.357422 395.86328 L 111.0293 452.56055 L 111.7207 453.25 L 170.4707 512 L 475.02539 512 L 469.72266 506.69727 L 469.72461 506.69531 L 475.0293 512 L 475.06055 512 L 470.41992 507.35938 L 469.74023 506.67969 L 116.18945 153.13086 z "
     id="path59" />
  <path
     inkscape:connector-curvature="0"
     id="path123"
     style="color:#000000;fill:#ffffff"
     d="m 395.81,58.75 -0.688,0.688 -146.47,146.47 -0.688,0.688 0.688,0.688 150.88,150.94 0.688,0.688 0.688,-0.688 69.813,-69.781 0.688,-0.688 -0.688,-0.688 -76.938,-77 74.03,-77.969 0.656,-0.688 -0.656,-0.688 -71.31,-71.28 -0.688,-0.688 m -279.62,94.38 -0.688,0.688 -71.31,71.25 -0.656,0.688 0.656,0.688 74.03,77.969 -76.938,77 -0.688,0.688 0.688,0.688 69.75,69.781 0.688,0.688 0.688,-0.688 150.94,-150.87 0.688,-0.688 -0.688,-0.688 -146.47,-146.5 -0.688,-0.688" />
</svg>

<?xml version="1.0" encoding="UTF-8" standalone="no"?>
<!-- Created with Inkscape (http://www.inkscape.org/) -->
<svg id="svg2" xmlns:rdf="http://www.w3.org/1999/02/22-rdf-syntax-ns#" xmlns="http://www.w3.org/2000/svg" height="100%" width="100%" version="1.1" xmlns:cc="http://creativecommons.org/ns#" viewBox="0 0 512 512" xmlns:dc="http://purl.org/dc/elements/1.1/">
 <metadata id="metadata127">
  <rdf:RDF>
   <cc:Work rdf:about="">
    <dc:format>image/svg+xml</dc:format>
    <dc:type rdf:resource="http://purl.org/dc/dcmitype/StillImage"/>
   </cc:Work>
  </rdf:RDF>
 </metadata>
 <defs id="defs4">
  <clipPath id="0">
   <path id="path7" d="m26 0c-14.397 0-26 11.603-26 26v460c0 14.397 11.603 26 26 26h460c14.397 0 26-11.603 26-26v-460c0-14.397-11.6-26-26-26h-460"/>
  </clipPath>
 </defs>
 <path id="path9" d="m26 0c-14.397 0-26 11.603-26 26v460c0 14.397 11.603 26 26 26h460c14.397 0 26-11.603 26-26v-460c0-14.397-11.6-26-26-26h-460" fill="#0078ad"/>
 <text id="text11" style="word-spacing:0;letter-spacing:0" font-size="129.23px" line-height="125%" y="238.84" x="-106.24" font-family="Gentium Book Basic">
  <tspan id="tspan13" y="238.84" x="-106.24"/>
 </text>
 <text id="text15" style="text-anchor:middle" transform="scale(4.0128 .2492)" font-size="46.954px" y="609.28003" x="170.61" font-family="Arial"/>
 <text id="text17" style="word-spacing:0;letter-spacing:0" font-size="129.23px" line-height="125%" y="158.84" x="475.03" font-family="Gentium Book Basic">
  <tspan id="tspan19" y="158.84" x="475.03"/>
 </text>
 <text id="text21" style="text-anchor:middle" transform="scale(4.0128 .2492)" font-size="46.954px" y="288.23999" x="315.45999" font-family="Arial"/>
 <text id="text23" style="word-spacing:0;letter-spacing:0" font-size="129.23px" line-height="125%" y="-22.417999" x="-596.54999" font-family="Gentium Book Basic">
  <tspan id="tspan25" y="-22.417999" x="-596.54999"/>
 </text>
 <text id="text27" style="text-anchor:middle" transform="scale(4.0128 .2492)" font-size="46.954px" y="-439.10001" x="48.419998" font-family="Arial"/>
 <text id="text29" style="word-spacing:0;letter-spacing:0" font-size="129.23px" line-height="125%" y="-238.89" x="501.5" font-family="Gentium Book Basic">
  <tspan id="tspan31" y="-238.89" x="501.5"/>
 </text>
 <text id="text33" style="text-anchor:middle" transform="scale(4.0128 .2492)" font-size="46.954px" y="-1307.78" x="322.06" font-family="Arial"/>
 <text id="text35" style="word-spacing:0;letter-spacing:0" font-size="129.23px" line-height="125%" y="-318.89001" x="1082.77" font-family="Gentium Book Basic">
  <tspan id="tspan37" y="-318.89001" x="1082.77"/>
 </text>
 <text id="text39" style="text-anchor:middle" transform="scale(4.0128 .2492)" font-size="46.954px" y="-1628.8101" x="466.91" font-family="Arial"/>
 <text id="text41" style="word-spacing:0;letter-spacing:0" font-size="129.23px" line-height="125%" y="-791.28998" x="693.65002" font-family="Gentium Book Basic">
  <tspan id="tspan43" y="-791.28998" x="693.65002"/>
 </text>
 <text id="text45" style="text-anchor:middle" transform="scale(4.0128 .2492)" font-size="46.954px" y="-3524.46" x="369.94" font-family="Arial"/>
 <text id="text47" style="word-spacing:0;letter-spacing:0" font-size="129.23px" line-height="125%" y="-871.29999" x="1274.91" font-family="Gentium Book Basic">
  <tspan id="tspan49" y="-871.29999" x="1274.91"/>
 </text>
 <text id="text51" style="text-anchor:middle" transform="scale(4.0128 .2492)" font-size="46.954px" y="-3845.5" x="514.78998" font-family="Arial"/>
 <text id="text53" style="word-spacing:0;letter-spacing:0" font-size="208.33px" line-height="125%" y="543.41998" x="-557.89001" font-family="Gentium Book Basic">
  <tspan id="tspan55" y="543.41998" x="-557.89001"/>
 </text>
 <g id="g57" opacity=".25" style="color:#000000" clip-path="url(#0)">
  <path id="path59" d="m395.81 58.75-0.688 0.688 353.55 353.55 0.688-0.688z"/>
  <path id="path61" d="m395.13 59.44-146.47 146.47 353.55 353.55 146.47-146.47z"/>
  <path id="path63" d="m248.66 205.91-0.688 0.688 353.55 353.55 0.688-0.688z"/>
  <path id="path65" d="m247.97 206.59 0.688 0.688 353.55 353.55-0.688-0.688z"/>
  <path id="path67" d="m248.66 207.28 150.88 150.94 353.55 353.55-150.87-150.94z"/>
  <path id="path69" d="m399.53 358.22 0.688 0.688 353.55 353.55-0.688-0.688z"/>
  <path id="path71" d="m400.22 358.91 0.688-0.688 353.55 353.55-0.688 0.688z"/>
  <path id="path73" d="m400.91 358.22 69.813-69.781 353.55 353.55-69.813 69.781z"/>
  <path id="path75" d="m470.72 288.44 0.688-0.688 353.55 353.55-0.688 0.688z"/>
  <path id="path77" d="m471.41 287.75-0.688-0.688 353.55 353.55 0.688 0.688z"/>
  <path id="path79" d="m470.72 287.06-76.938-77 353.55 353.55 76.938 77z"/>
  <path id="path81" d="m393.78 210.06 74.03-77.969 353.55 353.55-74.03 77.969z"/>
  <path id="path83" d="m467.81 132.09 0.656-0.688 353.55 353.55-0.656 0.688z"/>
  <path id="path85" d="m468.47 131.41-0.656-0.688 353.55 353.55 0.656 0.688z"/>
  <path id="path87" d="m467.81 130.72-71.31-71.28 353.55 353.55 71.31 71.28z"/>
  <path id="path89" d="m396.5 59.44-0.688-0.688 353.55 353.55 0.688 0.688z"/>
  <path id="path91" d="m116.19 153.13-0.688 0.688 353.55 353.55 0.688-0.688z"/>
  <path id="path93" d="m115.5 153.81-71.31 71.25 353.55 353.55 71.31-71.25z"/>
  <path id="path95" d="m44.19 225.06-0.656 0.688 353.55 353.55 0.656-0.688z"/>
  <path id="path97" d="m43.531 225.75 0.656 0.688 353.55 353.55-0.656-0.688z"/>
  <path id="path99" d="m44.19 226.44 74.03 77.969 353.55 353.55-74.03-77.969z"/>
  <path id="path101" d="m118.22 304.41-76.938 77 353.55 353.55 76.938-77z"/>
  <path id="path103" d="m41.28 381.41-0.688 0.688 353.55 353.55 0.688-0.688z"/>
  <path id="path105" d="m40.594 382.09 0.688 0.688 353.55 353.55-0.688-0.688z"/>
  <path id="path107" d="m41.28 382.78 69.75 69.781 353.55 353.55-69.75-69.781z"/>
  <path id="path109" d="m111.03 452.56 0.688 0.688 353.55 353.55-0.688-0.688z"/>
  <path id="path111" d="m111.72 453.25 0.688-0.688 353.55 353.55-0.688 0.688z"/>
  <path id="path113" d="m112.41 452.56 150.94-150.87 353.55 353.55-150.94 150.88z"/>
  <path id="path115" d="m263.34 301.69 0.688-0.688 353.55 353.55-0.688 0.688z"/>
  <path id="path117" d="m264.03 301-0.688-0.688 353.55 353.55 0.688 0.688z"/>
  <path id="path119" d="m263.34 300.31-146.47-146.5 353.55 353.55 146.47 146.5z"/>
  <path id="path121" d="m116.88 153.81-0.688-0.688 353.55 353.55 0.688 0.688z"/>
 </g>
 <path id="path123" style="color:#000000" d="m395.81 58.75-0.688 0.688-146.47 146.47-0.688 0.688 0.688 0.688 150.88 150.94 0.688 0.688 0.688-0.688 69.813-69.781 0.688-0.688-0.688-0.688-76.938-77 74.03-77.969 0.656-0.688-0.656-0.688-71.31-71.28-0.688-0.688m-279.62 94.38-0.688 0.688-71.31 71.25-0.656 0.688 0.656 0.688 74.03 77.969-76.938 77-0.688 0.688 0.688 0.688 69.75 69.781 0.688 0.688 0.688-0.688 150.94-150.87 0.688-0.688-0.688-0.688-146.47-146.5-0.688-0.688" fill="#fff"/>
</svg>
